img/desktop-fill-70.svg

<svg height="20.519845" viewBox="0 0 22.5880164 20.5198448" width="22.588016" xmlns="http://www.w3.org/2000/svg"><path d="m14.6539756 13.5050346c-.8442271 0-1.553632-.739605-1.553632-1.6515303 0-.9119254.7094049-1.6759297 1.553632-1.6759297s1.5289264.7640043 1.5289264 1.6759297c0 .9119253-.6846993 1.6515303-1.5289264 1.6515303m.3585848 3.2054633c-.7863453.8486395-1.9990395 1.2611408-3.7072582 1.2611408-.0035294 0-.0077646-.0007625-.0119999-.0007625-.0035294 0-.0077646.0007625-.0119999.0007625-1.70821871 0-2.92020697-.4125013-3.70584641-1.2611408-.24140943-.260768-.24140943-.6824191 0-.9424245.24070355-.2600055.63105271-.2600055.87246213 0 .54211239.5855841 1.46892694.8707514 2.83338428.8707514.0042353 0 .0084705.0007625.0119999.0007625.0042353 0 .0084705-.0007625.0119999-.0007625 1.3644574 0 2.2919778-.2851673 2.834796-.8707514.2414095-.260768.6317586-.2600055.8724622 0 .2407035.2607679.2407035.682419 0 .9424245m-8.60744601-4.8569936c0-.9111629.70799314-1.6759297 1.55151437-1.6759297.84422712 0 1.52892636.7647668 1.52892636 1.6759297 0 .9119253-.68469924 1.6515303-1.52892636 1.6515303-.84352123 0-1.55151437-.739605-1.55151437-1.6515303m12.41635021-10.52069036c.5717592 0 1.0369312.5024739 1.0369312 1.11931971 0 .61760829-.465172 1.12008219-1.0369312 1.12008219-.5717591 0-1.0369311-.5024739-1.0369311-1.12008219 0-.61684581.465172-1.11931971 1.0369311-1.11931971m3.7665518 8.70675196c0-1.61721879-1.2176353-2.9324957-2.7147973-2.9324957-.6479937 0-1.2430467.24704331-1.7103363.65801969-1.6552781-1.12389459-3.7559636-1.80097627-6.0077065-1.94432239l1.1745769-4.01140396 3.2279687.82119028c.084705 1.26952815 1.0672837 2.27447596 2.2637427 2.27447596 1.2515173 0 2.2700957-1.10025773 2.2700957-2.45289613 0-1.35187592-1.0185784-2.45213365-2.2700957-2.45213365-.8752856 0-1.6362194.53831044-2.0152745 1.32442666l-3.7510225-.95386169c-.3141146-.08006033-.6317586.11513439-.7291694.44757539l-1.4583388 4.97899028c-2.42609416.06404827-4.70677794.74341739-6.4834666 1.9328852-.46093671-.38962695-1.0404605-.62294564-1.66939558-.62294564-1.49716196 0-2.71479722 1.31527691-2.71479722 2.9324957 0 .9996104.46587784 1.883324 1.17528273 2.4124847-.02964677.2325562-.04517604.4666373-.04517604.7037684 0 2.0213328 1.08775417 3.901607 3.06279385 5.2938943 1.89315812 1.3351014 4.39901619 2.0701315 7.05522576 2.0701315 2.6562095 0 5.1620676-.7350301 7.0552257-2.0701315 1.9750397-1.3922873 3.0627939-3.2725615 3.0627939-5.2938943 0-.2157816-.0134117-.4300383-.0381173-.6427701.7566985-.5207734 1.2599878-1.4349861 1.2599878-2.473483" fill="#9b9b9b" fill-rule="evenodd"/></svg>

<?xml version="1.0" encoding="UTF-8"?>
<svg width="22.5880164px" height="20.5198448px" viewBox="0 0 22.5880164 20.5198448" version="1.1" xmlns="http://www.w3.org/2000/svg" xmlns:xlink="http://www.w3.org/1999/xlink">
    <!-- Generator: Sketch 50.2 (55047) - http://www.bohemiancoding.com/sketch -->
    <desc>Created with Sketch.</desc>
    <defs></defs>
    <g id="Page-1" stroke="none" stroke-width="1" fill="none" fill-rule="evenodd">
        <path d="M14.6539756,13.5050346 C13.8097485,13.5050346 13.1003436,12.7654296 13.1003436,11.8535043 C13.1003436,10.9415789 13.8097485,10.1775746 14.6539756,10.1775746 C15.4982027,10.1775746 16.182902,10.9415789 16.182902,11.8535043 C16.182902,12.7654296 15.4982027,13.5050346 14.6539756,13.5050346 M15.0125604,16.7104979 C14.2262151,17.5591374 13.0135209,17.9716387 11.3053022,17.9716387 C11.3017728,17.9716387 11.2975376,17.9708762 11.2933023,17.9708762 C11.2897729,17.9708762 11.2855377,17.9716387 11.2813024,17.9716387 C9.57308369,17.9716387 8.36109543,17.5591374 7.57545599,16.7104979 C7.33404656,16.4497299 7.33404656,16.0280788 7.57545599,15.7680734 C7.81615954,15.5080679 8.2065087,15.5080679 8.44791812,15.7680734 C8.99003051,16.3536575 9.91684506,16.6388248 11.2813024,16.6388248 C11.2855377,16.6388248 11.2897729,16.6395873 11.2933023,16.6395873 C11.2975376,16.6395873 11.3017728,16.6388248 11.3053022,16.6388248 C12.6697596,16.6388248 13.59728,16.3536575 14.1400982,15.7680734 C14.3815077,15.5073054 14.7718568,15.5080679 15.0125604,15.7680734 C15.2532639,16.0288413 15.2532639,16.4504924 15.0125604,16.7104979 M6.40511439,11.8535043 C6.40511439,10.9423414 7.11310753,10.1775746 7.95662876,10.1775746 C8.80085588,10.1775746 9.48555512,10.9423414 9.48555512,11.8535043 C9.48555512,12.7654296 8.80085588,13.5050346 7.95662876,13.5050346 C7.11310753,13.5050346 6.40511439,12.7654296 6.40511439,11.8535043 M18.8214646,1.33281394 C19.3932238,1.33281394 19.8583958,1.83528784 19.8583958,2.45213365 C19.8583958,3.06974194 19.3932238,3.57221584 18.8214646,3.57221584 C18.2497055,3.57221584 17.7845335,3.06974194 17.7845335,2.45213365 C17.7845335,1.83528784 18.2497055,1.33281394 18.8214646,1.33281394 M22.5880164,10.0395659 C22.5880164,8.42234711 21.3703811,7.1070702 19.8732191,7.1070702 C19.2252254,7.1070702 18.6301724,7.35411351 18.1628828,7.76508989 C16.5076047,6.6411953 14.4069192,5.96411362 12.1551763,5.8207675 L13.3297532,1.80936354 L16.5577219,2.63055382 C16.6424269,3.90008197 17.6250056,4.90502978 18.8214646,4.90502978 C20.0729819,4.90502978 21.0915603,3.80477205 21.0915603,2.45213365 C21.0915603,1.10025773 20.0729819,0 18.8214646,0 C17.946179,0 17.1852452,0.538310435 16.8061901,1.32442666 L13.0551676,0.370564973 C12.741053,0.29050464 12.423409,0.485699358 12.3259982,0.818140363 L10.8676594,5.79713064 C8.44156524,5.86117891 6.16088146,6.54054803 4.3841928,7.73001584 C3.92325609,7.34038889 3.3437323,7.1070702 2.71479722,7.1070702 C1.21763526,7.1070702 0,8.42234711 0,10.0395659 C0,11.0391763 0.465877838,11.9228899 1.17528273,12.4520506 C1.14563596,12.6846068 1.13010669,12.9186879 1.13010669,13.155819 C1.13010669,15.1771518 2.21786086,17.057426 4.19290054,18.4497133 C6.08605866,19.7848147 8.59191673,20.5198448 11.2481263,20.5198448 C13.9043358,20.5198448 16.4101939,19.7848147 18.303352,18.4497133 C20.2783917,17.057426 21.3661459,15.1771518 21.3661459,13.155819 C21.3661459,12.9400374 21.3527342,12.7257807 21.3280286,12.5130489 C22.0847271,11.9922755 22.5880164,11.0780628 22.5880164,10.0395659" id="Fill-70" fill="#9B9B9B"></path>
    </g>
</svg>
